dhis-2/dhis-support/dhis-support-system/src/main/resources/SVGs/hot_meal_positive.svg

<svg width="48" height="48" viewBox="0 0 48 48" fill="none" xmlns="http://www.w3.org/2000/svg">
<path fill-rule="evenodd" clip-rule="evenodd" d="M5.73428 4C7.29346 9.87863 1.15214 7.84495 5.73428 12.9999C3.42511 8.52744 10.3168 9.15494 5.73428 4ZM11.8398 4C13.3988 9.87863 7.25746 7.84495 11.8398 12.9999C9.53043 8.52744 16.4217 9.15494 11.8398 4ZM17.9427 4C19.5027 9.87863 13.3608 7.84495 17.9427 12.9999C15.6338 8.52744 22.5257 9.15494 17.9427 4ZM24.0486 4C25.6076 9.87863 19.4667 7.84495 24.0486 12.9999C21.7397 8.52744 28.6306 9.15494 24.0486 4ZM30.1516 4C31.7116 9.87863 25.5696 7.84495 30.1516 12.9999C27.8426 8.52744 34.7345 9.15494 30.1516 4ZM36.2575 4C37.8165 9.87863 31.6756 7.84495 36.2575 12.9999C33.9485 8.52744 40.8394 9.15494 36.2575 4ZM42.3604 4C43.9204 9.87863 37.7785 7.84495 42.3604 12.9999C40.0514 8.52744 46.9434 9.15494 42.3604 4ZM4.0469 16.9998C4.27265 22.1432 6.47315 27.0014 10.1904 30.5633C13.9077 34.1252 18.8553 36.1165 24.0036 36.1226C29.154 36.1196 34.1047 34.1297 37.8246 30.5675C41.5444 27.0052 43.7466 22.1453 43.9724 16.9998H4.0469ZM4.1328 39.9995C4.0594 39.9995 4 40.0585 4 40.1325V43.8665C4 43.9405 4.0594 43.9995 4.1328 43.9995H43.8663C43.9403 43.9995 43.9993 43.9405 43.9993 43.8665V40.1325C43.9993 40.0585 43.9403 39.9995 43.8663 39.9995H4.1328Z" fill="#333333"/>
</svg>

<?xml version="1.0" encoding="UTF-8" standalone="no"?>
<!-- Created with Inkscape (http://www.inkscape.org/) -->

<svg
   xmlns:dc="http://purl.org/dc/elements/1.1/"
   xmlns:cc="http://creativecommons.org/ns#"
   xmlns:rdf="http://www.w3.org/1999/02/22-rdf-syntax-ns#"
   xmlns:svg="http://www.w3.org/2000/svg"
   xmlns="http://www.w3.org/2000/svg"
   xmlns:sodipodi="http://sodipodi.sourceforge.net/DTD/sodipodi-0.dtd"
   xmlns:inkscape="http://www.inkscape.org/namespaces/inkscape"
   id="svg8"
   height="48"
   width="48"
   version="1.1"
   viewBox="0 0 12.7 12.7"
   sodipodi:docname="hot_meal_positive.svg"
   inkscape:version="0.92.2 (5c3e80d, 2017-08-06)">
  <defs
     id="defs9" />
  <sodipodi:namedview
     pagecolor="#ffffff"
     bordercolor="#666666"
     borderopacity="1"
     objecttolerance="10"
     gridtolerance="10"
     guidetolerance="10"
     inkscape:pageopacity="0"
     inkscape:pageshadow="2"
     inkscape:window-width="957"
     inkscape:window-height="480"
     id="namedview7"
     showgrid="false"
     inkscape:zoom="4.916666667"
     inkscape:cx="-37.72881356"
     inkscape:cy="24"
     inkscape:window-x="0"
     inkscape:window-y="0"
     inkscape:window-maximized="0"
     inkscape:current-layer="svg8" />
  <title
     id="title4753">UIO-icon</title>
  <metadata
     id="metadata5">
    <rdf:RDF>
      <cc:Work
         rdf:about="">
        <dc:format>image/svg+xml</dc:format>
        <dc:type
           rdf:resource="http://purl.org/dc/dcmitype/StillImage" />
        <dc:title>UIO-icon</dc:title>
        <dc:creator>
          <cc:Agent>
            <dc:title>Joaquín Urbano</dc:title>
          </cc:Agent>
        </dc:creator>
        <dc:rights>
          <cc:Agent>
            <dc:title>GPL</dc:title>
          </cc:Agent>
        </dc:rights>
      </cc:Work>
    </rdf:RDF>
  </metadata>
  <g
     id="layer1"
     transform="translate(0,-284.3)"
     style="fill:#1a1a1a">
    <path
       id="path890"
       d="m 5.7344,4 c 1.5592,5.8787 -4.5822,3.845 0,9 -2.3092,-4.4725 4.5826,-3.845 0,-9 z M 11.84,4 c 1.559,5.8787 -4.5824,3.845 0,9 -2.3094,-4.4725 4.582,-3.845 0,-9 z m 6.103,0 c 1.56,5.8787 -4.582,3.845 0,9 -2.309,-4.4725 4.583,-3.845 0,-9 z m 6.106,0 c 1.559,5.8787 -4.582,3.845 0,9 -2.309,-4.4725 4.582,-3.845 0,-9 z m 6.103,0 c 1.56,5.8787 -4.582,3.845 0,9 -2.309,-4.4725 4.583,-3.845 0,-9 z m 6.106,0 c 1.559,5.8787 -4.582,3.845 0,9 -2.309,-4.4725 4.582,-3.845 0,-9 z m 6.103,0 c 1.56,5.8787 -4.582,3.845 0,9 -2.309,-4.4725 4.583,-3.845 0,-9 z M 4.047,17 A 20,20 0 0 0 24.004,36.123 20,20 0 0 0 43.973,17 Z m 0.0859,23 c -0.0734,0 -0.1328,0.059 -0.1328,0.133 v 3.734 c 0,0.074 0.0594,0.133 0.1328,0.133 h 39.734 c 0.074,0 0.133,-0.059 0.133,-0.133 v -3.734 c 0,-0.074 -0.059,-0.133 -0.133,-0.133 z"
       transform="matrix(0.26458,0,0,0.26458,0,284.3)"
       style="fill:#1a1a1a;fill-rule:evenodd"
       inkscape:connector-curvature="0" />
  </g>
</svg>
